fa/road-spikes.svg

<svg xmlns="http://www.w3.org/2000/svg" viewBox="0 0 640 512" height="1em" width="1em">
  <path d="M64 116.8c0-15.8 20.53-22.01 29.31-9.7l98.69 148V116.8c0-15.8 20.5-22.01 29.3-9.7l98.7 148V116.8c0-15.8 20.5-22.01 29.3-9.7l98.7 148V116.8c0-15.8 20.5-22.01 29.3-9.7l129.5 195.1c14.2 21.3-1 48.9-26.6 48.9H64V116.8zm544 266.3c17.7 0 32 15.2 32 32 0 18.6-14.3 32-32 32H32c-17.67 0-32-13.4-32-32 0-16.8 14.33-32 32-32h576z"/>
</svg>

<svg xmlns="http://www.w3.org/2000/svg" viewBox="0 0 640 512" height="1em" width="1em">
  <path d="M64 116.8C64 101 84.53 94.79 93.31 107.1L192 255.1V116.8C192 101 212.5 94.79 221.3 107.1L320 255.1V116.8C320 101 340.5 94.79 349.3 107.1L448 255.1V116.8C448 101 468.5 94.79 477.3 107.1L606.8 302.2C621 323.5 605.8 351.1 580.2 351.1H64L64 116.8zM608 383.1C625.7 383.1 640 398.3 640 415.1C640 433.7 625.7 447.1 608 447.1H32C14.33 447.1 0 433.7 0 415.1C0 398.3 14.33 383.1 32 383.1H608z"/>
</svg>
